flaticon/seo-and-analytics/browser-39.svg

<svg xmlns="http://www.w3.org/2000/svg" width="32" height="32" viewBox="0 0 24 24">
    <path d="M2.796875 1.21875C1.917969 1.21875 1.199219 1.9375 1.199219 2.816406 1.199219 3.695312 1.917969 4.414062 2.796875 4.414062 3.675781 4.414062 4.394531 3.695312 4.394531 2.816406 4.394531 1.9375 3.675781 1.21875 2.796875 1.21875zM2.796875 3.613281C2.355469 3.613281 1.996094 3.253906 1.996094 2.816406 1.996094 2.375 2.355469 2.015625 2.796875 2.015625 3.234375 2.015625 3.59375 2.375 3.59375 2.816406 3.59375 3.253906 3.234375 3.613281 2.796875 3.613281zM6.390625 1.21875C5.511719 1.21875 4.792969 1.9375 4.792969 2.816406 4.792969 3.695312 5.511719 4.414062 6.390625 4.414062 7.269531 4.414062 7.988281 3.695312 7.988281 2.816406 7.988281 1.9375 7.269531 1.21875 6.390625 1.21875zM6.390625 3.613281C5.949219 3.613281 5.589844 3.253906 5.589844 2.816406 5.589844 2.375 5.949219 2.015625 6.390625 2.015625 6.828125 2.015625 7.1875 2.375 7.1875 2.816406 7.1875 3.253906 6.828125 3.613281 6.390625 3.613281zM9.984375 1.21875C9.105469 1.21875 8.386719 1.9375 8.386719 2.816406 8.386719 3.695312 9.105469 4.414062 9.984375 4.414062 10.863281 4.414062 11.582031 3.695312 11.582031 2.816406 11.582031 1.9375 10.863281 1.21875 9.984375 1.21875zM9.984375 3.613281C9.542969 3.613281 9.183594 3.253906 9.183594 2.816406 9.183594 2.375 9.542969 2.015625 9.984375 2.015625 10.421875 2.015625 10.78125 2.375 10.78125 2.816406 10.78125 3.253906 10.421875 3.613281 9.984375 3.613281zM7.585938 7.605469L2.394531 7.605469C2.15625 7.605469 1.996094 7.765625 1.996094 8.007812 1.996094 8.246094 2.15625 8.40625 2.394531 8.40625L7.585938 8.40625C7.828125 8.40625 7.988281 8.246094 7.988281 8.007812 7.988281 7.765625 7.828125 7.605469 7.585938 7.605469zM13.179688 8.40625C13.417969 8.40625 13.578125 8.246094 13.578125 8.007812 13.578125 7.765625 13.417969 7.605469 13.179688 7.605469L9.183594 7.605469C8.945312 7.605469 8.785156 7.765625 8.785156 8.007812 8.785156 8.246094 8.945312 8.40625 9.183594 8.40625zM15.574219 8.40625C15.8125 8.40625 15.972656 8.246094 15.972656 8.007812 15.972656 7.765625 15.8125 7.605469 15.574219 7.605469L14.773438 7.605469C14.535156 7.605469 14.375 7.765625 14.375 8.007812 14.375 8.246094 14.535156 8.40625 14.773438 8.40625zM17.96875 9.605469C17.96875 9.363281 17.808594 9.203125 17.570312 9.203125L11.582031 9.203125C11.339844 9.203125 11.179688 9.363281 11.179688 9.605469 11.179688 9.84375 11.339844 10.003906 11.582031 10.003906L17.570312 10.003906C17.808594 10.003906 17.96875 9.84375 17.96875 9.605469zM3.992188 9.605469C3.992188 9.84375 4.152344 10.003906 4.394531 10.003906L9.984375 10.003906C10.222656 10.003906 10.382812 9.84375 10.382812 9.605469 10.382812 9.363281 10.222656 9.203125 9.984375 9.203125L4.394531 9.203125C4.152344 9.203125 3.992188 9.363281 3.992188 9.605469zM2.394531 10.003906L2.796875 10.003906C3.035156 10.003906 3.195312 9.84375 3.195312 9.605469 3.195312 9.363281 3.035156 9.203125 2.796875 9.203125L2.394531 9.203125C2.15625 9.203125 1.996094 9.363281 1.996094 9.605469 1.996094 9.84375 2.15625 10.003906 2.394531 10.003906zM2.394531 11.601562L5.988281 11.601562C6.230469 11.601562 6.390625 11.441406 6.390625 11.203125 6.390625 10.960938 6.230469 10.800781 5.988281 10.800781L2.394531 10.800781C2.15625 10.800781 1.996094 10.960938 1.996094 11.203125 1.996094 11.441406 2.15625 11.601562 2.394531 11.601562zM7.585938 10.800781C7.347656 10.800781 7.1875 10.960938 7.1875 11.203125 7.1875 11.441406 7.347656 11.601562 7.585938 11.601562L8.386719 11.601562C8.625 11.601562 8.785156 11.441406 8.785156 11.203125 8.785156 10.960938 8.625 10.800781 8.386719 10.800781zM15.972656 11.203125C15.972656 10.960938 15.8125 10.800781 15.574219 10.800781L9.984375 10.800781C9.742188 10.800781 9.585938 10.960938 9.585938 11.203125 9.585938 11.441406 9.742188 11.601562 9.984375 11.601562L15.574219 11.601562C15.8125 11.601562 15.972656 11.441406 15.972656 11.203125zM2.394531 13.199219L7.585938 13.199219C7.828125 13.199219 7.988281 13.039062 7.988281 12.796875 7.988281 12.558594 7.828125 12.398438 7.585938 12.398438L2.394531 12.398438C2.15625 12.398438 1.996094 12.558594 1.996094 12.796875 1.996094 13.039062 2.15625 13.199219 2.394531 13.199219zM13.179688 12.398438L9.183594 12.398438C8.945312 12.398438 8.785156 12.558594 8.785156 12.796875 8.785156 13.039062 8.945312 13.199219 9.183594 13.199219L13.179688 13.199219C13.417969 13.199219 13.578125 13.039062 13.578125 12.796875 13.578125 12.558594 13.417969 12.398438 13.179688 12.398438zM13.179688 13.996094L11.582031 13.996094C11.339844 13.996094 11.179688 14.15625 11.179688 14.394531 11.179688 14.636719 11.339844 14.796875 11.582031 14.796875L13.179688 14.796875C13.417969 14.796875 13.578125 14.636719 13.578125 14.394531 13.578125 14.15625 13.417969 13.996094 13.179688 13.996094zM10.382812 14.394531C10.382812 14.15625 10.222656 13.996094 9.984375 13.996094L4.394531 13.996094C4.152344 13.996094 3.992188 14.15625 3.992188 14.394531 3.992188 14.636719 4.152344 14.796875 4.394531 14.796875L9.984375 14.796875C10.222656 14.796875 10.382812 14.636719 10.382812 14.394531zM2.394531 14.796875L2.796875 14.796875C3.035156 14.796875 3.195312 14.636719 3.195312 14.394531 3.195312 14.15625 3.035156 13.996094 2.796875 13.996094L2.394531 13.996094C2.15625 13.996094 1.996094 14.15625 1.996094 14.394531 1.996094 14.636719 2.15625 14.796875 2.394531 14.796875zM2.394531 16.394531L5.988281 16.394531C6.230469 16.394531 6.390625 16.234375 6.390625 15.992188 6.390625 15.753906 6.230469 15.59375 5.988281 15.59375L2.394531 15.59375C2.15625 15.59375 1.996094 15.753906 1.996094 15.992188 1.996094 16.234375 2.15625 16.394531 2.394531 16.394531zM8.386719 16.394531C8.625 16.394531 8.785156 16.234375 8.785156 15.992188 8.785156 15.753906 8.625 15.59375 8.386719 15.59375L7.585938 15.59375C7.347656 15.59375 7.1875 15.753906 7.1875 15.992188 7.1875 16.234375 7.347656 16.394531 7.585938 16.394531zM12.777344 15.59375L9.984375 15.59375C9.742188 15.59375 9.585938 15.753906 9.585938 15.992188 9.585938 16.234375 9.742188 16.394531 9.984375 16.394531L12.777344 16.394531C13.019531 16.394531 13.179688 16.234375 13.179688 15.992188 13.179688 15.753906 13.019531 15.59375 12.777344 15.59375zM2.394531 17.988281L7.585938 17.988281C7.828125 17.988281 7.988281 17.832031 7.988281 17.589844 7.988281 17.351562 7.828125 17.191406 7.585938 17.191406L2.394531 17.191406C2.15625 17.191406 1.996094 17.351562 1.996094 17.589844 1.996094 17.832031 2.15625 17.988281 2.394531 17.988281zM11.582031 17.589844C11.582031 17.351562 11.421875 17.191406 11.179688 17.191406L9.183594 17.191406C8.945312 17.191406 8.785156 17.351562 8.785156 17.589844 8.785156 17.832031 8.945312 17.988281 9.183594 17.988281L11.179688 17.988281C11.421875 17.988281 11.582031 17.832031 11.582031 17.589844zM10.382812 19.1875C10.382812 18.949219 10.222656 18.789062 9.984375 18.789062L4.394531 18.789062C4.152344 18.789062 3.992188 18.949219 3.992188 19.1875 3.992188 19.425781 4.152344 19.585938 4.394531 19.585938L9.984375 19.585938C10.222656 19.585938 10.382812 19.425781 10.382812 19.1875zM2.394531 19.585938L2.796875 19.585938C3.035156 19.585938 3.195312 19.425781 3.195312 19.1875 3.195312 18.949219 3.035156 18.789062 2.796875 18.789062L2.394531 18.789062C2.15625 18.789062 1.996094 18.949219 1.996094 19.1875 1.996094 19.425781 2.15625 19.585938 2.394531 19.585938zM2.394531 21.183594L5.988281 21.183594C6.230469 21.183594 6.390625 21.023438 6.390625 20.785156 6.390625 20.546875 6.230469 20.386719 5.988281 20.386719L2.394531 20.386719C2.15625 20.386719 1.996094 20.546875 1.996094 20.785156 1.996094 21.023438 2.15625 21.183594 2.394531 21.183594zM7.585938 20.386719C7.347656 20.386719 7.1875 20.546875 7.1875 20.785156 7.1875 21.023438 7.347656 21.183594 7.585938 21.183594L8.386719 21.183594C8.625 21.183594 8.785156 21.023438 8.785156 20.785156 8.785156 20.546875 8.625 20.386719 8.386719 20.386719zM9.984375 21.183594L10.78125 21.183594C11.023438 21.183594 11.179688 21.023438 11.179688 20.785156 11.179688 20.546875 11.023438 20.386719 10.78125 20.386719L9.984375 20.386719C9.742188 20.386719 9.585938 20.546875 9.585938 20.785156 9.585938 21.023438 9.742188 21.183594 9.984375 21.183594zM9.984375 21.183594"/>
    <path d="M 0.796875 22.542969 L 0.796875 5.609375 L 23.160156 5.609375 L 23.160156 13.199219 L 23.960938 13.199219 L 23.960938 1.179688 C 23.960938 0.539062 23.441406 0.0195312 22.84375 0.0195312 L 1.15625 0.0195312 C 0.519531 0.0195312 0 0.539062 0 1.179688 L 0 22.542969 C 0 23.339844 0.640625 23.980469 1.4375 23.980469 L 11.980469 23.980469 L 11.980469 23.179688 L 1.4375 23.179688 C 1.078125 23.179688 0.796875 22.902344 0.796875 22.542969 Z M 0.796875 1.179688 C 0.796875 0.976562 0.957031 0.820312 1.15625 0.820312 L 22.800781 0.820312 C 23 0.820312 23.160156 0.976562 23.160156 1.179688 L 23.160156 4.8125 L 0.796875 4.8125 Z M 0.796875 1.179688"/>
    <path d="M 18.808594 13.636719 C 17.292969 13.636719 15.855469 14.234375 14.894531 15.355469 C 14.734375 15.515625 14.773438 15.753906 14.933594 15.914062 C 15.09375 16.074219 15.335938 16.035156 15.496094 15.875 C 16.292969 14.914062 17.492188 14.394531 18.769531 14.394531 C 21.203125 14.394531 23.160156 16.351562 23.160156 18.789062 C 23.160156 21.226562 21.203125 23.179688 18.769531 23.179688 C 16.78125 23.179688 15.03125 21.824219 14.488281 19.988281 L 16.371094 19.988281 L 16.371094 19.1875 L 14.023438 19.1875 C 13.980469 19.179688 13.9375 19.179688 13.898438 19.1875 L 13.179688 19.1875 L 13.179688 22.382812 L 13.976562 22.382812 L 13.976562 20.949219 C 14.8125 22.730469 16.683594 23.980469 18.769531 23.980469 C 21.644531 23.980469 24 21.703125 24 18.828125 C 24 15.953125 21.683594 13.636719 18.808594 13.636719 Z M 18.808594 13.636719"/>
</svg>

<svg xmlns="http://www.w3.org/2000/svg" width="32" height="32" viewBox="0 0 24 24">
    <path d="M2.797 1.219c-.879 0-1.598.718-1.598 1.597 0 .88.719 1.598 1.598 1.598.879 0 1.598-.719 1.598-1.598 0-.878-.72-1.597-1.598-1.597zm0 2.394c-.442 0-.8-.36-.8-.797 0-.441.358-.8.8-.8.437 0 .797.359.797.8a.8.8 0 0 1-.797.797zm0 0M6.39 1.219c-.878 0-1.597.718-1.597 1.597 0 .88.719 1.598 1.598 1.598.879 0 1.597-.719 1.597-1.598 0-.878-.718-1.597-1.597-1.597zm0 2.394c-.44 0-.8-.36-.8-.797 0-.441.36-.8.8-.8.438 0 .798.359.798.8a.8.8 0 0 1-.797.797zm0 0M9.984 1.219c-.879 0-1.597.718-1.597 1.597 0 .88.718 1.598 1.597 1.598.88 0 1.598-.719 1.598-1.598 0-.878-.719-1.597-1.598-1.597zm0 2.394c-.441 0-.8-.36-.8-.797 0-.441.359-.8.8-.8.438 0 .797.359.797.8a.8.8 0 0 1-.797.797zm0 0M7.586 7.605H2.395c-.239 0-.399.16-.399.403 0 .238.16.398.399.398h5.19c.243 0 .403-.16.403-.398 0-.242-.16-.403-.402-.403zm0 0M13.18 8.406c.238 0 .398-.16.398-.398 0-.242-.16-.403-.398-.403H9.184c-.239 0-.399.16-.399.403 0 .238.16.398.399.398zm0 0M15.574 8.406c.239 0 .399-.16.399-.398 0-.242-.16-.403-.399-.403h-.8c-.239 0-.399.16-.399.403 0 .238.16.398.398.398zm0 0M17.969 9.605c0-.242-.16-.402-.399-.402h-5.988c-.242 0-.402.16-.402.402 0 .239.16.399.402.399h5.988c.239 0 .399-.16.399-.399zm0 0M3.992 9.605c0 .239.16.399.403.399h5.59c.238 0 .398-.16.398-.399 0-.242-.16-.402-.399-.402h-5.59c-.242 0-.402.16-.402.402zm0 0M2.395 10.004h.402c.238 0 .398-.16.398-.399 0-.242-.16-.402-.398-.402h-.402c-.239 0-.399.16-.399.402 0 .239.16.399.399.399zm0 0M2.395 11.602h3.593c.242 0 .403-.16.403-.399 0-.242-.16-.402-.403-.402H2.395c-.239 0-.399.16-.399.402 0 .238.16.399.399.399zm0 0M7.586 10.8c-.238 0-.399.16-.399.403 0 .238.16.399.399.399h.8c.239 0 .4-.16.4-.399 0-.242-.161-.402-.4-.402zm0 0M15.973 11.203c0-.242-.16-.402-.399-.402h-5.59c-.242 0-.398.16-.398.402 0 .238.156.399.398.399h5.59c.239 0 .399-.16.399-.399zm0 0M2.395 13.2h5.19c.243 0 .403-.16.403-.403 0-.238-.16-.399-.402-.399H2.395c-.239 0-.399.16-.399.399 0 .242.16.402.399.402zm0 0M13.18 12.398H9.184c-.239 0-.399.16-.399.399 0 .242.16.402.399.402h3.996c.238 0 .398-.16.398-.402 0-.238-.16-.399-.398-.399zm0 0M13.18 13.996h-1.598c-.242 0-.402.16-.402.399 0 .242.16.402.402.402h1.598c.238 0 .398-.16.398-.402 0-.239-.16-.399-.398-.399zm0 0M10.383 14.395c0-.239-.16-.399-.399-.399h-5.59c-.242 0-.402.16-.402.399 0 .242.16.402.403.402h5.59c.238 0 .398-.16.398-.402zm0 0M2.395 14.797h.402c.238 0 .398-.16.398-.402 0-.239-.16-.399-.398-.399h-.402c-.239 0-.399.16-.399.399 0 .242.16.402.399.402zm0 0M2.395 16.395h3.593c.242 0 .403-.16.403-.403 0-.238-.16-.398-.403-.398H2.395c-.239 0-.399.16-.399.398 0 .242.16.403.399.403zm0 0M8.387 16.395c.238 0 .398-.16.398-.403 0-.238-.16-.398-.398-.398h-.801c-.238 0-.399.16-.399.398 0 .242.16.403.399.403zm0 0M12.777 15.594H9.984c-.242 0-.398.16-.398.398 0 .242.156.403.398.403h2.793c.243 0 .403-.16.403-.403 0-.238-.16-.398-.403-.398zm0 0M2.395 17.988h5.19c.243 0 .403-.156.403-.398 0-.238-.16-.399-.402-.399H2.395c-.239 0-.399.16-.399.399 0 .242.16.398.399.398zm0 0M11.582 17.59c0-.238-.16-.399-.402-.399H9.184c-.239 0-.399.16-.399.399 0 .242.16.398.399.398h1.996c.242 0 .402-.156.402-.398zm0 0M10.383 19.188c0-.239-.16-.399-.399-.399h-5.59c-.242 0-.402.16-.402.398 0 .239.16.399.403.399h5.59c.238 0 .398-.16.398-.398zm0 0M2.395 19.586h.402c.238 0 .398-.16.398-.398 0-.239-.16-.399-.398-.399h-.402c-.239 0-.399.16-.399.398 0 .239.16.399.399.399zm0 0M2.395 21.184h3.593c.242 0 .403-.16.403-.399 0-.238-.16-.398-.403-.398H2.395c-.239 0-.399.16-.399.398 0 .238.16.399.399.399zm0 0M7.586 20.387c-.238 0-.399.16-.399.398 0 .238.16.399.399.399h.8c.239 0 .4-.16.4-.399 0-.238-.161-.398-.4-.398zm0 0M9.984 21.184h.797c.242 0 .399-.16.399-.399 0-.238-.157-.398-.399-.398h-.797c-.242 0-.398.16-.398.398 0 .238.156.399.398.399zm0 0"/>
    <path d="M.797 22.543V5.609H23.16v7.59h.8V1.18c0-.64-.519-1.16-1.116-1.16H1.156A1.16 1.16 0 0 0 0 1.18v21.364c0 .797.64 1.437 1.438 1.437H11.98v-.8H1.437a.63.63 0 0 1-.64-.637zm0-21.363c0-.203.16-.36.36-.36H22.8c.199 0 .36.157.36.36v3.633H.796zm0 0"/>
    <path d="M18.809 13.637c-1.516 0-2.954.597-3.914 1.718-.16.16-.122.399.039.56.16.16.402.12.562-.04.797-.96 1.996-1.48 3.274-1.48a4.38 4.38 0 0 1 4.39 4.394 4.377 4.377 0 0 1-4.39 4.39c-1.989 0-3.739-1.355-4.282-3.19h1.883v-.802h-2.348a.336.336 0 0 0-.125 0h-.718v3.196h.797v-1.434a5.339 5.339 0 0 0 4.793 3.031c2.875 0 5.23-2.277 5.23-5.152a5.181 5.181 0 0 0-5.191-5.191zm0 0"/>
</svg>
